X:40
T:Sweet Marie
M:C|
G:Key: A
G:Crooked
S:https://youtu.be/SpsNW2OjFHU
N:Good in cross-A tuning; watch out for the extra half measure at the beginning of the B section.
Z:abc-transcription Josh Larios <hades@elsewhere.org>, 2020.01.14
Z:abc-copyright This transcription is licensed under a Creative Commons Attribution-ShareAlike 4.0 International License.
K:A
[P:A]y0|: "A"cB cB A4 | A2 B2 c4 | B2 c2 "D"d4 | f2 a2 "A"e4 | 
cB cd e2 e2 | f2 a2 c2 c2 | "E"cB Ac B2 G2 |1 "A"A4 A2 AB :|2 "A" A4 A4 ||
[P:B]|:"A"a2 a2 | "D"f4 d2-de | f2 a2 a2 f2 | "A"e2 f2 ed cd | "E"e8 | 
"A"cB cd e2 e2 | f2 a2 c2 c2 | "E"cB Ac BA G2 |1 "A"A4 A4 :|2 "A"A4 A2 AB |

